packages/clerk-js/src/v4/icons/logo-mark.svg

<svg viewBox="0 0 48 14" fill="currentColor" xmlns="http://www.w3.org/2000/svg">
<path fill-rule="evenodd" clip-rule="evenodd" d="M0.323875 3.88578C0.123367 4.00235 0 4.21678 0 4.44871V9.58025C0 9.81219 0.123367 10.0266 0.323875 10.1432L7 14.0247V14.0043L13.6761 10.1228C13.8766 10.0063 14 9.79184 14 9.5599V4.63997C14 4.3889 13.7278 4.23231 13.5108 4.35851L7.32386 7.95554C7.12336 8.07212 6.99999 8.28654 6.99999 8.51848V9.46651L0.542502 5.71216L7 1.9578V0.570211C7 0.31914 6.72783 0.16255 6.51078 0.288743L0.323875 3.88578ZM9.07516 8.58514C9.02503 8.61429 8.99419 8.66789 8.99419 8.72587V9.1419C8.99419 9.20467 9.06223 9.24382 9.11649 9.21227L12.4132 7.29557C12.4633 7.26643 12.4942 7.21282 12.4942 7.15484V6.73881C12.4942 6.67604 12.4261 6.63689 12.3719 6.66844L9.07516 8.58514Z" />
<path d="M4.66666 7.16189C4.66666 6.92996 4.79003 6.71553 4.99054 6.59896L11.1774 3.00192C11.3945 2.87573 11.6667 3.03232 11.6667 3.28339V4.67098L4.66666 8.74074V7.16189Z" />
<path d="M2.33333 5.8053C2.33333 5.57337 2.4567 5.35894 2.65721 5.24237L8.84411 1.64533C9.06116 1.51914 9.33333 1.67573 9.33333 1.9268V3.31439L2.33333 7.38416V5.8053Z" />
<path d="M20.8766 11.8837C20.307 11.8837 19.7604 11.7917 19.2367 11.6078C18.7222 11.4146 18.2675 11.1295 17.8725 10.7524C17.4866 10.3662 17.1788 9.8879 16.9492 9.31767C16.7195 8.73825 16.6047 8.06685 16.6047 7.30348C16.6047 6.54931 16.7241 5.88251 16.9629 5.30309C17.2018 4.71447 17.5188 4.22241 17.9138 3.82693C18.318 3.42225 18.7774 3.11414 19.2918 2.9026C19.8155 2.69106 20.3621 2.5853 20.9317 2.5853C21.5289 2.5853 22.0617 2.70486 22.5303 2.94399C22.9988 3.17392 23.3938 3.44985 23.7154 3.77175L22.4751 5.28929C22.2546 5.09615 22.025 4.9398 21.7861 4.82024C21.5564 4.69148 21.29 4.62709 20.9868 4.62709C20.7204 4.62709 20.4678 4.68688 20.2289 4.80644C19.9992 4.926 19.7925 5.09615 19.6088 5.31688C19.4342 5.53762 19.2918 5.80894 19.1816 6.13084C19.0805 6.45274 19.03 6.81603 19.03 7.22071C19.03 8.06685 19.2046 8.71526 19.5537 9.16592C19.912 9.61658 20.3805 9.84191 20.9593 9.84191C21.3084 9.84191 21.6161 9.76834 21.8826 9.62118C22.1582 9.46483 22.3924 9.28088 22.5854 9.06935L23.8256 10.5593C23.4398 11.0008 22.9942 11.3319 22.4889 11.5526C21.9928 11.7733 21.4554 11.8837 20.8766 11.8837Z" />
<path d="M26.7186 11.8837C26.3144 11.8837 25.9745 11.8239 25.6989 11.7043C25.4325 11.5756 25.2166 11.3962 25.0512 11.1663C24.8858 10.9364 24.7664 10.6651 24.6929 10.3524C24.6286 10.0305 24.5965 9.67636 24.5965 9.29008V2.11624H26.9667V9.37286C26.9667 9.61198 27.008 9.77294 27.0907 9.85571C27.1826 9.93849 27.2699 9.97987 27.3526 9.97987C27.3985 9.97987 27.4352 9.97987 27.4628 9.97987C27.4995 9.97987 27.5455 9.97068 27.6006 9.95228L27.8762 11.6906C27.7476 11.7457 27.5868 11.7917 27.3939 11.8285C27.2102 11.8653 26.9851 11.8837 26.7186 11.8837Z" />
<path d="M31.6224 11.8837C31.1172 11.8837 30.6486 11.8055 30.2168 11.6492C29.7851 11.4836 29.4084 11.2491 29.0868 10.9456C28.7745 10.6329 28.5264 10.2512 28.3427 9.80053C28.159 9.34986 28.0671 8.83942 28.0671 8.26919C28.0671 7.70816 28.159 7.20691 28.3427 6.76545C28.5356 6.31478 28.7837 5.9331 29.0868 5.62039C29.3992 5.30769 29.7529 5.06856 30.1479 4.90301C30.543 4.73746 30.9518 4.65469 31.3744 4.65469C31.8797 4.65469 32.3207 4.74206 32.6973 4.91681C33.074 5.09155 33.3863 5.33068 33.6344 5.63419C33.8824 5.9377 34.0662 6.29179 34.1856 6.69647C34.3142 7.10114 34.3785 7.53341 34.3785 7.99328C34.3785 8.20481 34.3648 8.40255 34.3372 8.58649C34.3188 8.77044 34.3005 8.9038 34.2821 8.98657H30.3546C30.4649 9.40045 30.6624 9.69016 30.9472 9.85571C31.232 10.0121 31.5673 10.0902 31.9532 10.0902C32.192 10.0902 32.4217 10.058 32.6422 9.99367C32.8719 9.92009 33.1107 9.81432 33.3588 9.67636L34.1305 11.0835C33.7538 11.3503 33.3358 11.5526 32.8765 11.6906C32.4263 11.8193 32.0083 11.8837 31.6224 11.8837ZM30.3271 7.44144H32.3666C32.3666 7.17472 32.2977 6.94479 32.1599 6.75165C32.0313 6.54931 31.7878 6.44814 31.4295 6.44814C31.1631 6.44814 30.9288 6.52632 30.7267 6.68267C30.5338 6.83902 30.4006 7.09195 30.3271 7.44144Z" />
<path d="M37.3568 11.7181C36.278 11.7181 35.4034 10.8435 35.4034 9.76466V4.82024H36.7659C37.0908 4.82024 37.366 5.05972 37.4109 5.38151L37.498 6.00668H37.5531C37.8103 5.53762 38.1135 5.19732 38.4626 4.98579C38.8209 4.76505 39.17 4.65469 39.5099 4.65469C39.7212 4.65469 39.8912 4.66848 40.0198 4.69607C40.1484 4.71447 40.2633 4.74666 40.3643 4.79264L39.9785 6.83443C39.8499 6.80683 39.7258 6.78384 39.6064 6.76545C39.4962 6.73785 39.3629 6.72406 39.2068 6.72406C38.9587 6.72406 38.6969 6.81143 38.4213 6.98618C38.1549 7.15173 37.939 7.45064 37.7736 7.88291V11.7181H37.3568Z" />
<path d="M42.841 11.7181C41.7622 11.7181 40.8875 10.8435 40.8875 9.76466V2.11624H43.2027V7.22071H43.2578L44.5729 5.56066C44.9434 5.09295 45.5074 4.82024 46.1041 4.82024H47.7227L45.2697 7.68976L47.8605 11.7181H46.4411C45.7347 11.7181 45.0833 11.3367 44.7375 10.7207L43.9193 9.26249L43.2027 10.0626V11.7181H42.841Z" />
</svg>

<svg viewBox="0 0 48 14" fill="currentColor" xmlns="http://www.w3.org/2000/svg"><path fill-rule="evenodd" clip-rule="evenodd" d="M.324 3.886A.651.651 0 0 0 0 4.449V9.58c0 .232.123.447.324.563L7 14.025v-.02l6.676-3.882A.651.651 0 0 0 14 9.56V4.64a.326.326 0 0 0-.49-.281L7.325 7.956A.651.651 0 0 0 7 8.518v.949L.543 5.712 7 1.958V.57A.326.326 0 0 0 6.51.29L.325 3.886Zm8.751 4.7a.163.163 0 0 0-.08.14v.416c0 .063.067.102.121.07l3.297-1.916a.163.163 0 0 0 .081-.141v-.416a.081.081 0 0 0-.122-.07L9.075 8.584Z"/><path d="M4.667 7.162c0-.232.123-.446.324-.563l6.186-3.597c.218-.126.49.03.49.281v1.388l-7 4.07V7.16ZM2.333 5.805c0-.232.124-.446.324-.563l6.187-3.597c.217-.126.49.03.49.282v1.387l-7 4.07V5.805ZM20.877 11.884c-.57 0-1.117-.092-1.64-.276a3.982 3.982 0 0 1-1.364-.856 4.24 4.24 0 0 1-.924-1.434c-.23-.58-.344-1.251-.344-2.015 0-.754.12-1.42.358-2 .239-.589.556-1.08.95-1.476a4.18 4.18 0 0 1 3.019-1.242c.597 0 1.13.12 1.598.359.469.23.864.506 1.185.828l-1.24 1.517c-.22-.193-.45-.35-.689-.469a1.607 1.607 0 0 0-.8-.193c-.266 0-.518.06-.757.18-.23.119-.436.29-.62.51a2.72 2.72 0 0 0-.427.814 3.632 3.632 0 0 0-.152 1.09c0 .846.175 1.494.524 1.945.358.45.827.676 1.405.676.35 0 .657-.074.924-.22.275-.157.51-.341.702-.553l1.24 1.49a3.766 3.766 0 0 1-1.336.994 3.921 3.921 0 0 1-1.612.33ZM26.719 11.884c-.405 0-.745-.06-1.02-.18a1.686 1.686 0 0 1-.648-.538 2.264 2.264 0 0 1-.358-.814 5.433 5.433 0 0 1-.097-1.062V2.116h2.37v7.257c0 .239.042.4.125.483.092.082.179.124.262.124h.11c.037 0 .082-.01.138-.028l.275 1.739c-.128.055-.29.1-.482.137a3.505 3.505 0 0 1-.675.056ZM31.622 11.884a4.1 4.1 0 0 1-1.405-.235 3.403 3.403 0 0 1-1.13-.703 3.429 3.429 0 0 1-.744-1.145 4.027 4.027 0 0 1-.276-1.532c0-.56.092-1.062.276-1.504.193-.45.44-.832.744-1.145a3.283 3.283 0 0 1 1.06-.717 3.144 3.144 0 0 1 1.227-.248c.506 0 .947.087 1.323.262.377.175.69.414.937.717a3 3 0 0 1 .552 1.062c.128.405.193.837.193 1.297 0 .212-.014.41-.042.593a3.805 3.805 0 0 1-.055.4h-3.927c.11.414.307.704.592.87.285.156.62.234 1.006.234.239 0 .469-.032.69-.096.229-.074.468-.18.716-.318l.771 1.408c-.376.266-.794.469-1.254.607-.45.128-.868.193-1.254.193ZM30.327 7.44h2.04c0-.266-.07-.496-.207-.69-.129-.202-.372-.303-.73-.303-.267 0-.501.078-.703.235-.193.156-.326.409-.4.758ZM37.357 11.718a1.953 1.953 0 0 1-1.954-1.953V4.82h1.363c.325 0 .6.24.645.562l.087.625h.055c.257-.47.56-.81.91-1.021.358-.221.707-.331 1.047-.331.211 0 .381.013.51.041.128.018.243.05.344.097l-.386 2.041a6.468 6.468 0 0 0-.372-.069 1.667 1.667 0 0 0-.4-.04c-.247 0-.51.086-.785.261-.266.166-.482.465-.647.897v3.835h-.417ZM42.841 11.718a1.954 1.954 0 0 1-1.953-1.953V2.116h2.315v5.105h.055l1.315-1.66c.37-.468.934-.74 1.531-.74h1.619L45.27 7.69l2.59 4.028h-1.419a1.954 1.954 0 0 1-1.704-.997l-.818-1.459-.716.8v1.656h-.362Z"/></svg>
